SVG/server.svg

<?xml version="1.0" encoding="utf-8"?>
<!-- Generated by IcoMoon.io -->
<!DOCTYPE svg PUBLIC "-//W3C//DTD SVG 1.1//EN" "http://www.w3.org/Graphics/SVG/1.1/DTD/svg11.dtd">
<svg version="1.1" xmlns="http://www.w3.org/2000/svg" xmlns:xlink="http://www.w3.org/1999/xlink" width="14" height="14" viewBox="0 0 14 14">
<path fill="#444444" d="M1 11h8v-1h-8v1zM1 7h8v-1h-8v1zM13.25 10.5q0-0.312-0.219-0.531t-0.531-0.219-0.531 0.219-0.219 0.531 0.219 0.531 0.531 0.219 0.531-0.219 0.219-0.531zM1 3h8v-1h-8v1zM13.25 6.5q0-0.312-0.219-0.531t-0.531-0.219-0.531 0.219-0.219 0.531 0.219 0.531 0.531 0.219 0.531-0.219 0.219-0.531zM13.25 2.5q0-0.312-0.219-0.531t-0.531-0.219-0.531 0.219-0.219 0.531 0.219 0.531 0.531 0.219 0.531-0.219 0.219-0.531zM14 9v3h-14v-3h14zM14 5v3h-14v-3h14zM14 1v3h-14v-3h14z"></path>
</svg>

<svg xmlns="http://www.w3.org/2000/svg" viewBox="0 0 14 14"><path d="M1 11h8v-1H1v1zm0-4h8V6H1v1zm12.25 3.5q0-.312-.22-.53t-.53-.22-.53.22-.22.53.22.53.53.22.53-.22.22-.53zM1 3h8V2H1v1zm12.25 3.5q0-.312-.22-.53t-.53-.22-.53.22-.22.53.22.53.53.22.53-.22.22-.53zm0-4q0-.312-.22-.53t-.53-.22-.53.22-.22.53.22.53.53.22.53-.22.22-.53zM14 9v3H0V9h14zm0-4v3H0V5h14zm0-4v3H0V1h14z" /></svg>
